X: 27072
T: Miss Johnson
R: reel
M: 4/4
K: Gmajor
BcdB G2BG|DGBG DGBG|BcdB G2BG|FGAB cedc|
BcdB G2BG|DGBG DGBG|dBcA BGAG|FGAB cedc:|
Bcde d~B3|dBgB aBgB|Bcde dcBc|Aaag fedc|
Bcde d~B3|dBgB aBgB|bgaf gfed|egfa gedc:|

